resources/svg/movie-fill.svg

<svg fill="currentColor" viewBox="0 0 24 24" xmlns="http://www.w3.org/2000/svg"><path d="M2 3.9934C2 3.44476 2.45531 3 2.9918 3H21.0082C21.556 3 22 3.44495 22 3.9934V20.0066C22 20.5552 21.5447 21 21.0082 21H2.9918C2.44405 21 2 20.5551 2 20.0066V3.9934ZM10.6219 8.41459C10.5562 8.37078 10.479 8.34741 10.4 8.34741C10.1791 8.34741 10 8.52649 10 8.74741V15.2526C10 15.3316 10.0234 15.4088 10.0672 15.4745C10.1897 15.6583 10.4381 15.708 10.6219 15.5854L15.5008 12.3328C15.5447 12.3035 15.5824 12.2658 15.6117 12.2219C15.7343 12.0381 15.6846 11.7897 15.5008 11.6672L10.6219 8.41459Z"/></svg>

<svg xmlns="http://www.w3.org/2000/svg" viewBox="0 0 24 24" fill="currentColor">
    <g>
        <path fill="none" d="M0 0h24v24H0z"/>
        <path d="M2 3.993A1 1 0 0 1 2.992 3h18.016c.548 0 .992.445.992.993v16.014a1 1 0 0 1-.992.993H2.992A.993.993 0 0 1 2 20.007V3.993zm8.622 4.422a.4.4 0 0 0-.622.332v6.506a.4.4 0 0 0 .622.332l4.879-3.252a.4.4 0 0 0 0-.666l-4.88-3.252z"/>
    </g>
</svg>
